icon-themes/sifr_svg/cmd/lc_autooutline.svg

<svg viewBox="0 0 24 24" xmlns="http://www.w3.org/2000/svg"><path d="m7 2-4 5h2l-3 6 9-7h-2l4-4zm11 0-16 16 4 4 8-8v-2.828125l-1.171875-1.171875 5.171875-5.171875 1.171875 1.171875-5 5h2.828125l5-5zm-3 10v10h7v-10zm2 2h3v2h-3zm0 4h3v2h-3z" fill="#555753"/></svg>

<svg xmlns="http://www.w3.org/2000/svg" viewBox="0 0 24 24">
  <path
     style="fill:#555753"
     d="M 7 2 L 3 7 L 5 7 L 2 13 L 11 6 L 9 6 L 13 2 L 7 2 z M 18 2 L 2 18 L 6 22 L 14 14 L 14 11.171875 L 12.828125 10 L 18 4.828125 L 19.171875 6 L 14.171875 11 L 17 11 L 22 6 L 18 2 z M 15 12 L 15 22 L 22 22 L 22 12 L 15 12 z M 17 14 L 20 14 L 20 16 L 17 16 L 17 14 z M 17 18 L 20 18 L 20 20 L 17 20 L 17 18 z "
     />
</svg>
